ir/cable-rounded.svg

<svg stroke-width="1.5" viewBox="0 0 24 24" fill="none" xmlns="http://www.w3.org/2000/svg" height="1em" width="1em">
  <path d="M2 15V9C2 5.68629 4.68629 3 8 3H16C19.3137 3 22 5.68629 22 9V15C22 18.3137 19.3137 21 16 21H8C4.68629 21 2 18.3137 2 15Z" stroke="currentColor" stroke-width="1.5"/>
  <path d="M11.6667 8L10 12H14L12.3333 16" stroke="currentColor" stroke-linecap="round" stroke-linejoin="round"/>
</svg>

<svg stroke-width="1.5" viewBox="0 0 24 24" fill="none" xmlns="http://www.w3.org/2000/svg" height="1em" width="1em">
  <path d="M2 15V9a6 6 0 0 1 6-6h8a6 6 0 0 1 6 6v6a6 6 0 0 1-6 6H8a6 6 0 0 1-6-6Z" stroke="currentColor"/>
  <path d="M11.667 8 10 12h4l-1.667 4" stroke="currentColor" stroke-linecap="round" stroke-linejoin="round"/>
</svg>
